X:1
T:Title
%%score { ( 1 3 ) | ( 2 4 ) }
L:1/8
M:4/4
K:Eb
V:1 treble nm="Grand Piano"
V:3 treble 
V:2 bass 
V:4 bass 
V:1
 z4 z2[Q:1/4=108] GA | B2 B2 E2 GF | E2 D2 F2 AB |[M:3/4] c2 c2 F2 |[M:1/4] AG | %5
[M:4/4] F2 E2 G2 GA | B2 B2 E2 GF |[M:3/4] E2 D2 F2 |[M:1/4] AB | %9
[M:4/4] c2 c2[K:bass] [F,D]2 C[K:treble]D |[M:3/4] F2 E2 E2 |[M:1/4] ed |[M:3/4] c6 |[M:1/4] ec | %14
[M:4/4] B6 z2 | [Ee]2 [Ge]2 [G,E]2 [B,FA][B,EG] | [DF]6 z2 | [EGB]2 [B,GB]2 E2 GF | %18
 E2 D2 F2 [DA][_DB] | [Cc]2 [Ec][Ec] D2 D2 |[M:3/4] E6 |] %21
V:2
 z8 | E,2 B,2 G,2 B,2 | [F,A,]2 B,2 D,2 B,2 |[M:3/4] B,,2 A,2 D,2 |[M:1/4] B,2 | %5
[M:4/4] E,2 B,2 G,2 B,2 | E,2 B,2 G,2 B,2 |[M:3/4] [F,A,]2 B,2 D,2 |[M:1/4] B,2 | %9
[M:4/4] A,,2 A,G, B,,2 A,2 |[M:3/4] E,,2 G,,B,, E,2 |[M:1/4] G,B, |[M:3/4] A,2 A,A, A,2 | %13
[M:1/4] CA, |[M:4/4] G,2 G,F, E,2 E,[D,F,] | [C,G,]2 [C,C]2 C,2 D,E, | z4 B,2 z2 | %17
 E,2 E,2 [G,B,]2 [G,B,E][G,B,] | [F,A,B,]2 [F,A,B,]2 [D,A,B,]2 [B,,F,][G,,E,] | %19
 [A,,A,]2 [A,,A,][A,,G,] [B,,F,B,]2 [B,,A,B,]2 |[M:3/4] [E,G,B,]6 |] %21
V:3
 x8 | x8 | x8 |[M:3/4] x6 |[M:1/4] x2 |[M:4/4] x8 | x8 |[M:3/4] x6 |[M:1/4] x2 | %9
[M:4/4] x4[K:bass] x3[K:treble] x |[M:3/4] x6 |[M:1/4] x2 |[M:3/4] z2 EE E2 |[M:1/4] x2 | %14
[M:4/4] z2 [B,E][A,D] [G,E]2 [GB][FB] | x8 | B,4 z2 [B,EG][B,FA] | x8 | x8 | x8 |[M:3/4] x6 |] %21
V:4
 x8 | x8 | x8 |[M:3/4] x6 |[M:1/4] x2 |[M:4/4] x8 | x8 |[M:3/4] x6 |[M:1/4] x2 |[M:4/4] x8 | %10
[M:3/4] x6 |[M:1/4] x2 |[M:3/4] x6 |[M:1/4] x2 |[M:4/4] x8 | x8 | B,,2 D,F, z A,G,F, | x8 | x8 | %19
 x8 |[M:3/4] x6 |] %21

